startshape shapes

shape shapes {
    SQUARE []
    SQUARE [x .5 y .5 size .5 hue 30 saturation 1 brightness 1]
    SQUARE [x 1 y 1 hue 90 saturation 1 brightness 1 rotate 10]
    TRIANGLE [hue 240 saturation 1 brightness 1]
}