startshape START

CF::MinimumSize = 0.1
CF::Background = [b -1]

shape START {
    BOB [ hue 0 sat 0.5 b 1 ]
}

shape BOB {
  ARM []
}

shape ARM {
  TRIANGLE [ s 1 ]
  TRIANGLE [ s 0.4 x 0.28 y 0.48 r 71 hue 30 b -0.5 ]
  TRIANGLE [ s 0.4 y 0.0 x 0.55 r 60 hue -30 b -0.5 ]
  ARM [ r 15.2 s 0.99 y 0.9 hue 50 ]
}